X:1
T:L'Indifférente
T:Les Triolets
T:Jean-Philippe Rameau
T:Suite en Sol Nr 5
%%score { ( 1 4 ) | ( 2 3 ) }
L:1/8
Q:1/4=85
M:3/4
K:G
V:1 treble nm="Piano"
V:4 treble 
V:2 treble 
V:3 treble 
V:1
 Bcd | e3 f g2 | (Pd2 c2) B2 | A4 d2 |{c} B2 c2{B} A2 | PBAGFGA | Bc d2 g2 |{g} Tf3 fga | %8
 b2 ag fe | a2 gf ed | g2 fe d^c | d3 e f2 | B2 ^c3 d |{d} T^c3 cde | f2 Pf3 g |{f} Te3 ^cde | %16
 f2 f3 f |{f} B3 ^c{B} A2 | d2{d} T^c3 d | d3 || FGA | B3 ^c d2 | (A2 PG2) F2 |{F} TE4 A2 | %24
{G} F2 G2{F} E2 | PFEDEFG | AB =c3 d | PB2 g3 f | e2 f3 g | P^d3 ^cBA | GB c4- | c^A B4- | %32
 B^G A4- | A3 B G2- | GF{G} TF3 F | EFGABc | d2 z2 z2 | cBcdef | g2 z2 z2 | =f2 Pd3 g | e2 ^f3 g | %41
{g} T[Af]3 fga | b2 Pb3 c' |{b} Ta3 [df][eg][fa] | [gb]2 [db]3 [db] |{b} e3 f{e} d2 | g2{g} Tf3 g | %47
 g3 || FGA | B3 ^c d2 | A2 PG2 F2 |{F} TE4 A2 |{G} F2 G2{F} E2 | PFEDEFG | AB =c3 d | PB2 g3 f | %56
 e2 f3 g | P^d3 ^cBA | GB c4- | c^A B4- | B^G A4- | A3 B G2- | GF{G} TF3 E | EFGABc | d2 z2 z2 | %65
 cBcdef | g2 z2 z2 | =f2 Pd3 g | e2 ^f3 g |{g} T[Af]3 fga | b2 Pb3 c' |{b} Ta3 [df][eg][fa] | %72
 [gb]2 [db]3 [db] |{b} e3 f{e} d2 | g2{g} Tf3 g | g3 || FGA | B2 PB3 c |{B} TA3 FGA | B2 B3 B | %80
{B} E3 F D2 | G2{G} TF3 G | G6 |] %83
V:2
 GAB | Cd c3 B- | BB A2 GG, |{G} TF4 B,B- | B G2 A2 F | GDG,DEF | GABABG | dADcBA | GA (B2 PA)G | %9
 FG (A2 PG)F | EF (G2 PF)E | FGFEDF | GF{F} TE3 D | [A,E]3 AB^c | dAFADF | A,EAGFE | %16
 DED^C[K:bass] B,A, | G,F,G,E,F,E, | F,D, z2 A,,2 | [A,,D,]3 || x3 | G,3 A, B,2 | ^C3 C DD, | %23
 ^C4 F,[I:staff -1]F |[I:staff +1] B,D G,E A,^C | DA,D,A,[I:staff -1]DE |[I:staff +1] z6 | %27
[I:staff -1] G[I:staff +1]DB,DG,B, | CB,PA,G,A,F, | B,A,B,^C^DB, | E3 D C2 | D3 C B,2 | C3 B, A,2 | %33
 B,^C^DB, z2 |{B,} TA,2{G,A,} B,4 | E,,B,,E,F,G,A, | B,2 z2 z2 | A,G,A,B,CA, | E,F,G,A,B,C | %39
 DCB,A,B,G, | CB,{B,} TA,3 G, | x6 | x6 | x6 | x6 | CB,CA,B,A, | B,G, D4 | [D,G,]3 || x3 | %49
 G,3 A, B,2 | ^C3 C DD, | ^C4 F,[I:staff -1]F |[I:staff +1] B,D G,E A,^C | DA,D,A,[I:staff -1]DE | %54
[I:staff +1] x6 |[I:staff -1] G[I:staff +1]DB,DG,B, | CB,PA,G,A,F, | B,A,B,^C^DB, | E3 D C2 | %59
 D3 C B,2 | C3 B, A,2 | B,^C^DB, z2 |{B,} TA,2{G,A,} B,4 | E,,B,,E,F,G,A, | B,2 z2 z2 | %65
 A,G,A,B,CA, | E,F,G,A,B,C | DCB,A,B,G, | CB,{B,} TA,3 G, | x6 | x6 | x6 | x6 | CB,CA,B,A, | %74
 B,G, D4 | [D,G,]3 || x3 | x6 | D,A,DCB,A, | G,A,G,F,E,D, | C,B,,C,A,,B,,A,, | B,,G,, D,4 | G,,6 |] %83
V:3
 x3 | C3 D E2 | F3 F x2 | D4 B,2 | E2 C2 D2 | x6 | x6 | x6 | x6 | x6 | x6 | x6 | x6 | x6 | x6 | %15
 x6 | x4[K:bass] x2 | x6 | x2 A,4 | D,,3 || x3 | x6 | x6 | A,4 F,2 | B,2 G,2 A,2 | x6 | x6 | x6 | %28
 x6 | x6 | x6 | x6 | x6 | x6 | z2 z2 B,,2 | x6 | B,,C,D,E,F,G, | A,,2 z2 z2 | x6 | x6 | x6 | x6 | %42
 x6 | x6 | x6 | x6 | x2 z2 D,2 | G,,3 || x3 | x6 | x6 | A,4 F,2 | B,2 G,2 A,2 | x6 | x6 | x6 | x6 | %57
 x6 | x6 | x6 | x6 | x6 | z2 z2 B,,2 | x6 | B,,C,D,E,F,G, | A,,2 z2 z2 | x6 | x6 | x6 | x6 | x6 | %71
 x6 | x6 | x6 | x2 z2 D,2 | G,,3 || x3 | x6 | x6 | x6 | x6 | B,,G,, z2 D,,2 | %82
 z2 z D,,- [G,,,D,,]2 |] %83
V:4
 x3 | x6 | x6 | x6 | x6 | x6 | x6 | x3 def | g2 fe d^c | f2 ed ^cB | e2 d^c BA- | A4 A2 | A2 G3 F | %13
 x6 | x6 | x3 AB^c | d2 A3 A | A2 G4 | F2 E2 G2 | z A-[FA] || DEF | %21
[I:staff +1] G,[I:staff -1]F G3 F- | FF E2 x2 | x6 | x6 | x6 | FGAGAF | x2 B3 A | G2 c4 | F4 z2 | %30
 G3 GAE | F2 x FG^D | E2 x EF^C | ^DE F2 E2- | E2 ^D3 E | x6 | DEFGAB | x6 | GABcde | z2 G4 | %40
 G2 c3 B | D3 def | gdBdGB | DAdcBA | GAGFED | d2 c4 | B2 A2 c2 | z d-[Bd] || DEF | %49
[I:staff +1] G,[I:staff -1]F G3 F- | FF E2 x2 | x6 | x6 | x6 | FGAGAF | x2 B3 A | G2 c4 | F4 z2 | %58
 G3 GAE | F3 FG^D | E3 EF^C | ^DE F2 E2- | E2 ^D3 E | x6 | DEFGAB | x6 | GABcde | z2 G4 | G2 c3 B | %69
 D3 def | gdBdGB | DAdcBA | GAGFED | d2 c4 | B2 A2 c2 | z d-[Bd] || DEF | %77
 GD[I:staff +1]B,[I:staff -1]D[I:staff +1]G,B, |[I:staff -1] z2 z DEF | G2 D3 D | D2 C4 | %81
 B,2 A,2 C2 | z D-[B,D]-[G,B,D]- [G,B,D]2 |] %83

